X:274
T:Railway Hotel
M:4/4
L:1/8
K:G
D2 | G2 AG F2 GF | E2 FE D2 EF | G2 G2 AG F2 | G4 -G2 :|
B2 B2 BA G2 | AGAB A2 GA | B2 B2 BAGF | E4 z2 EF |
G2 AG F2 GF | E2 FE D2 EF | G2 G2 AG F2 | G4 -G2 ||
